symbolic/22x22/actions/format-font-size-less.svg

<svg xmlns="http://www.w3.org/2000/svg" width="22" height="22"><defs><style id="current-color-scheme" type="text/css"></style></defs><path style="fill:currentColor;color:#323a41" d="M9 4 4 18h2.5l1.063-3h3.572L12 14c.434-.347 1.066-.347 1.457.043l.543.543V12l-3-8zm1 4 1.75 5h-3.5zm5 5v4l-2.25-2.25-.75.75 3.5 3.5 3.5-3.5-.75-.75L16 17v-4z"/></svg>

<svg xmlns="http://www.w3.org/2000/svg" width="22" height="22" version="1.1">
 <defs>
  <style id="current-color-scheme" type="text/css">
   .ColorScheme-Text { color:#323a41; } .ColorScheme-Highlight { color:#4285f4; } .ColorScheme-NeutralText { color:#ff9800; } .ColorScheme-PositiveText { color:#4caf50; } .ColorScheme-NegativeText { color:#f44336; }
  </style>
 </defs>
 <path style="fill:currentColor" class="ColorScheme-Text" d="M 9,4 4,18 H 6.5 L 7.5625,15 H 11.135 L 12,14 C 12.434,13.653 13.066,13.653 13.457,14.043 L 14,14.586 V 12 L 11,4 Z M 10,8 11.75,13 H 8.25 Z M 15,13 V 17 L 12.75,14.75 12,15.5 15.5,19 19,15.5 18.25,14.75 16,17 V 13 Z"/>
</svg>
